svgs/themed_icon_calendar_26.svg

<svg height="192" width="192" xmlns="http://www.w3.org/2000/svg"><path d="M146 30H46c-8.837 0-16 7.163-16 16v100c0 8.837 7.163 16 16 16h75.373a16 16 0 0 0 11.313-4.686l24.628-24.628A16 16 0 0 0 162 121.373V46c0-8.837-7.163-16-16-16Z" stroke="#000" stroke-width="12" fill="none"/><path d="M63.484 120c-1.824 0-3.144-.408-3.96-1.224-.816-.864-1.224-2.112-1.224-3.744 0-1.056.264-2.04.792-2.952.528-.912 1.248-1.848 2.16-2.808l13.536-14.256c2.016-2.16 3.456-4.08 4.32-5.76.912-1.68 1.368-3.36 1.368-5.04 0-4.32-2.664-6.48-7.992-6.48-1.392 0-2.832.192-4.32.576-1.44.384-2.952 1.056-4.536 2.016-1.296.768-2.496.936-3.6.504-1.056-.432-1.848-1.176-2.376-2.232a5.23 5.23 0 0 1-.36-3.312c.288-1.2 1.08-2.184 2.376-2.952a24.478 24.478 0 0 1 6.912-2.88c2.496-.672 4.968-1.008 7.416-1.008 5.664 0 9.984 1.272 12.96 3.816 3.024 2.496 4.536 6.072 4.536 10.728 0 3.072-.72 6.024-2.16 8.856-1.392 2.784-3.696 5.808-6.912 9.072l-9.792 9.936h16.704c3.12 0 4.68 1.512 4.68 4.536 0 3.072-1.56 4.608-4.68 4.608H63.484Zm55.34.792c-6.48 0-11.496-2.208-15.048-6.624-3.504-4.464-5.256-10.752-5.256-18.864 0-8.496 1.992-15.096 5.976-19.8 3.984-4.704 9.504-7.056 16.56-7.056 2.064 0 4.152.288 6.264.864 2.112.576 4.08 1.44 5.904 2.592 1.2.672 1.92 1.584 2.16 2.736.288 1.152.192 2.256-.288 3.312-.432 1.056-1.176 1.824-2.232 2.304-1.008.48-2.232.384-3.672-.288-1.488-.816-2.928-1.392-4.32-1.728a16.289 16.289 0 0 0-3.96-.504c-7.872 0-11.808 5.16-11.808 15.48v1.368c1.008-2.4 2.568-4.248 4.68-5.544 2.112-1.344 4.536-2.016 7.272-2.016 2.88 0 5.424.72 7.632 2.16 2.256 1.392 4.032 3.336 5.328 5.832 1.296 2.448 1.944 5.256 1.944 8.424 0 3.36-.744 6.36-2.232 9-1.44 2.592-3.456 4.632-6.048 6.12-2.544 1.488-5.496 2.232-8.856 2.232Zm-.576-8.712c2.208 0 3.984-.744 5.328-2.232 1.392-1.536 2.088-3.528 2.088-5.976 0-2.4-.696-4.368-2.088-5.904-1.344-1.536-3.12-2.304-5.328-2.304-2.256 0-4.08.768-5.472 2.304-1.344 1.536-2.016 3.504-2.016 5.904 0 2.448.672 4.44 2.016 5.976 1.392 1.488 3.216 2.232 5.472 2.232Z"/></svg>

<?xml version="1.0" encoding="UTF-8" standalone="no"?><svg xmlns:android="http://schemas.android.com/apk/res/android" height="192" width="192" xmlns="http://www.w3.org/2000/svg">
  <path d="M146,30H46C37.163,30 30,37.163 30,46V146C30,154.837 37.163,162 46,162H121.373C125.616,162 129.686,160.314 132.686,157.314L157.314,132.686C160.314,129.686 162,125.616 162,121.373V46C162,37.163 154.837,30 146,30Z" fill="#000000" fill-opacity="0.0" stroke="#000000" stroke-width="12"/>
  <path d="M63.484,120C61.66,120 60.34,119.592 59.524,118.776C58.708,117.912 58.3,116.664 58.3,115.032C58.3,113.976 58.564,112.992 59.092,112.08C59.62,111.168 60.34,110.232 61.252,109.272L74.788,95.016C76.804,92.856 78.244,90.936 79.108,89.256C80.02,87.576 80.476,85.896 80.476,84.216C80.476,79.896 77.812,77.736 72.484,77.736C71.092,77.736 69.652,77.928 68.164,78.312C66.724,78.696 65.212,79.368 63.628,80.328C62.332,81.096 61.132,81.264 60.028,80.832C58.972,80.4 58.18,79.656 57.652,78.6C57.172,77.544 57.052,76.44 57.292,75.288C57.58,74.088 58.372,73.104 59.668,72.336C61.78,71.04 64.084,70.08 66.58,69.456C69.076,68.784 71.548,68.448 73.996,68.448C79.66,68.448 83.98,69.72 86.956,72.264C89.98,74.76 91.492,78.336 91.492,82.992C91.492,86.064 90.772,89.016 89.332,91.848C87.94,94.632 85.636,97.656 82.42,100.92L72.628,110.856H89.332C92.452,110.856 94.012,112.368 94.012,115.392C94.012,118.464 92.452,120 89.332,120H63.484ZM118.824,120.792C112.344,120.792 107.328,118.584 103.776,114.168C100.272,109.704 98.52,103.416 98.52,95.304C98.52,86.808 100.512,80.208 104.496,75.504C108.48,70.8 114,68.448 121.056,68.448C123.12,68.448 125.208,68.736 127.32,69.312C129.432,69.888 131.4,70.752 133.224,71.904C134.424,72.576 135.144,73.488 135.384,74.64C135.672,75.792 135.576,76.896 135.096,77.952C134.664,79.008 133.92,79.776 132.864,80.256C131.856,80.736 130.632,80.64 129.192,79.968C127.704,79.152 126.264,78.576 124.872,78.24C123.528,77.904 122.208,77.736 120.912,77.736C113.04,77.736 109.104,82.896 109.104,93.216V94.584C110.112,92.184 111.672,90.336 113.784,89.04C115.896,87.696 118.32,87.024 121.056,87.024C123.936,87.024 126.48,87.744 128.688,89.184C130.944,90.576 132.72,92.52 134.016,95.016C135.312,97.464 135.96,100.272 135.96,103.44C135.96,106.8 135.216,109.8 133.728,112.44C132.288,115.032 130.272,117.072 127.68,118.56C125.136,120.048 122.184,120.792 118.824,120.792ZM118.248,112.08C120.456,112.08 122.232,111.336 123.576,109.848C124.968,108.312 125.664,106.32 125.664,103.872C125.664,101.472 124.968,99.504 123.576,97.968C122.232,96.432 120.456,95.664 118.248,95.664C115.992,95.664 114.168,96.432 112.776,97.968C111.432,99.504 110.76,101.472 110.76,103.872C110.76,106.32 111.432,108.312 112.776,109.848C114.168,111.336 115.992,112.08 118.248,112.08Z" fill="#000000"/>
</svg>
